X:3
M:C|
L:1/8
Q:"Allegro"
%%continueall 1
%%maxshrink 0.74
%%staves {1 2} 3
K:Cm
V:1
G8|c8|B2cde2E2|A2G2F2d2|G2=A=Bc2C2|FGFE DEFD|EFED CDEC|D2c2=B2d2|G2f2-fedc|d2G2c4-|
V:2
z8|z8|z8|z8|z8|z8|z8|z8|C8|G8|
V:3
C,2=B,,2C,2D,2|E,2D,2E,2F,2|G,4C4|F,4B,4|E,4A,4|D,4G,4|C,4E,4|F,4zG,F,G,|E,F,D,E,C,4-|C,=A,,=B,,G,, E,D,E,C,|
V:1
c4B4-|B4=A4-|A4G4-|G4^F4|G2D2B2G2|cdcB =ABcA|BcB=AG2g2|c2ded2c2|=BcdBc2e2|A2BcB2A2|
V:2
F2G=AB2B,2|E2D2C2=A2|D2=E^FG2G,2|CDCB, =A,B,CA,|B,CB,=A, G,A,B,G,|=A,2G2^F2=A2-|ADG=A BAGB|_ABAG FGAF|GAGF EFGE|FGFE DEFD|
V:3
D,4G,4|C,4F,4|B,,4E,4|=A,,4D,4|G,,4z2E,,2|C,,4D,,4|G,,4z4|z8|z8|z8|
V:1
G2=A=Bc4-|c2=Bcd2F2|EFED CDEC|DEDC B,C_DB,|C4z2a2|=B2cde4-|e2dc =BcdB|cdefg2G2|
V:2
EFED CDEC|DEDC =B,CDB,|C2E2A4-|A4G4-|G2FE DEFD|EFED CDEC|A,4-A,G,F,A,|G,4-G,C=B,C|
V:3
z8|G,,8|C,8|B,,2C,D,E,2E,,2|A,,2G,,2F,,2D,2|G,,2=A,,=B,,C,2C,,2|F,,2E,,2D,,2F,,2|E,,2D,,2C,,2E,,2|
V:1
=A3=BPB4|c8|g8|e2fga2A2|_d2c2B2g2|c2=d=ef2F2|BcBA GABG|ABAG FGAF|
V:2
FGFE DEFD|EFED CDEC|DEDC =B,CDB,|CDC_B, A,B,CA,|B,CB,A, G,A,B,G,|A,B,A,G, F,G,A,F,|G,A,G,F, =E,F,G,E,|F,2C2F4-|
V:3
D,,4G,,4|C,,2G,,2C,4-|C,2=B,,2G,4-|G,2C,2F,4-|F,4=E,4|F,4_D,4|B,,4C,4|F,,4z2F,,2|
% (2)
V:1
G2C2c4-|c2=Bc defd|efed cdec|abag fgaf|gagf edc=B|c=Bce dcBc|=BGAB cBcd|efed c=Bcd|
V:2
F2ED CDEC|DEDC =B,CDB,|C8-|CDCDPD3C/D/|E8-|EFEFPF3E/F/|G4z4|G8|
V:3
C,4z2C,2|G,,4z2G,2|C2_B,2A,2G,2|F,4B,4|E,2D,2C,2E,2|A,,8|G,,2F,2E,2D,2|C,2D,2E,2D,2|
V:1
edef gfef|gagfe4-|e4d4-|d4c4-|c4=B4|c8-|c8-|c8-|c8-|
V:2
c8|B2cde2E2|A2G2F2d2|G2=A=Bc2C2|FGFE DEFD|EFED CDEF|GAGF =EFGE|F=EFG ABcA|BcBA GABG|
V:3
C,2B,,2A,,4|E,2D,2C,CB,C|F,4zB,A,B,|E,4zA,G,A,|D,4G,4|C,2D,2E,2C,2|B,2A,2G,2C,2|A,2G,2F,2C,2|G,2F,2=E,2C,2|
V:1
c8-|c=B=AB cedc|=B2G2c4-|c=Bc=AB3c|c4z2e2|d/=B/^FG4e2|d/=B/^FG4a2|g/e/=Bc2-cfed|e/c/GA2-A_dc_B|
V:2
ABAG FGAF|D8-|Dc=B=A GcF2|E3DPD3C|C4z4|z8|z8|z8|z8|
V:3
F,2G,2A,2G,2|^F,2G,2=A,2F,2|G,2=F,2E,2_A,2|G,2F,2G,2G,,2|C,2D,2E,2C,2|G,2F,2E,2C,2|G,2F,2E,2D,2|E,2A,2F,2G,2|C,2F,2_D,2E,2|
V:1
c/A/=EF2-FBAG|A/G/F B/A/G c/B/A=d2-|deBg cgfe|dedc dBGe|^F3=A/=c/d3B/G/|^F3=A/c/ dGcF|G2d/c/d =e/d/e ^f/e/e|
V:2
z8|z8|z8|z4z2B2|=A/^F/^CD4B2|=A/^F/^CD4e2|d/B/^FG2-GcB=A|
V:3
A,,2_D,2B,,2C,2|F,,2G,,2A,,2F,,2|G,,4=A,,4|B,,2=A,,2B,,2C,2|D,2=C,2B,,2G,,2|D,2C,2B,,2=A,,2|B,,2B,2C2D2|
% (3)
V:1
g2B/_A/B c/B/c d/c/d|e2G/F/G =A/G/A =B/A/B|c4-c3d/e/|fdB4g2-|g=ef2z2f2|!trill!!trill(!f8-|f8-!trill)!|
V:2
B/G/DE2-E_AG=F|G/E/=B,C2-CFED|E/D/C F/E/D G/F/E=A2|ABFd GdcB|=ABAG FEDC|DBEc DBC=A|DBEc DBC=A|
V:3
G,2G,,2_A,,2B,,2|E,,2E,2F,2G,2|C,2D,2E,2C,2|D,4E,4|F,2G,2=A,2F,2|B,2=A,2B,2F,2|B,2=A,2B,2F,2|
V:1
fBgB fBe=A|dedc B_AGF|GeAf GeFd|GeAf GeFd|G2A2G2F2|E2b2g2e2-|e2dc df=eg|f2c'2a2f2-|
V:2
D2E2D2C2|B,4z2B2|!trill!!trill(!B8-|B8-!trill)!|BEcE BEAD|GAGF EFGE|FGFE FB,GB,|ABAG FGAF|
V:3
B,2E,2F,4|B,,2C,2D,2B,,2|E,2D,2E,2B,,2|E,2D,2E,2B,,2|E,2A,,2B,,4|E,,8|B,,8|F,,8|
V:1
f2_ede2^F2|G8|c8|B2cde2E2|_A2G2F2d2|G2=A=Bc2C2|FGFE DEFD|EFED CDEC|D2c2=B2d2-|
V:2
GAGF GC=AC|BcB=A GABG|=ABAG ^FGAF|G8|c8|B2cde2E2|_A2G2F2d2|G2=A=Bc2C2|FGFE DEFD|
V:3
C,8|G,,2B,,2E,2D,2|C,2=A,,2D,2D,,2|G,,2=A,,B,,C,4-|C,4D,4|E,2D,2C,4-|C,4=B,,4|C,4_A,,4|F,,4G,,4|
V:1
d2cde2c2-|c=B=AGf4-|f2edc4-|c2_B_A GABG|ABAG FGAF|_d6G2|cf=e=dc2B2|A4G4|F4z4|
V:2
EFED CDEC|D2c2=B2d2-|d2c=B cdec|f8-|f=efga4-|a2gf =efge|f6g2|c2f4=e2|f4z2A2|
V:3
C,8|G,8|E,2F,G,A,2A,,2|_D,2C,2B,,2G,2|C,2=D,=E,F,2F,,2|B,,2A,,2G,,2B,,2|A,,2G,,2A,,2B,,2|C,4C,,4|F,,2G,,2A,,2F,,2|
% (4)
V:1
z8|z8|z8|z8|z8|z8|z8|z4z2e2|d/=B/^FG4e2|
V:2
G/=E/=B,C4A2|G/=E/=B,C4_d2|c/A/=EF2-FBAG|A/F/C_D2-D_GF_E|F/_D/=A,B,2-B,EDC|_D/C/B, E/D/C F/E/D=G2-|GAEc FcBA|GAGF GECA|=B,3D/F/G3E/C/|
V:3
C,2B,,2A,,2F,,2|C,2B,,2A,,2G,,2|A,,2_D,2B,,2C,2|F,,2B,,2_G,,2A,,2|_D,2_G,2E,2F,2|B,,2C,2_D,2B,,2|C,4=D,4|E,2D,2E,2F,2|G,2F,2E,2C,2|
V:1
d/=B/^FG4a2|g/e/=Bc2-cfed|e/c/GA2-A_dc_B|c/A/=EF2-FBAG|A/G/F B/A/G c/B/Ad2-|deBg cgfe|dedc BAGF|
V:2
=B,3D/F/ GCFB,|C2G/F/G =A/G/A =B/A/B|c2E/_D/E F/E/F G/F/G|A2C/B,/C =D/C/D =E/D/E|F6-FG/A/|BGE4c2-|c=AB2z2B2|
V:3
G,2F,2E,2D,2|E,2E,,2F,,2G,,2|C,,2C,2_D,2E,2|A,,2A,2B,2C2|F,2G,2A,2F,2|G,4A,4|B,2C2D2B,,2|
V:1
GeAf GeFd|GeAf GeFd|G2A2G2F2|E4z2e2|!trill!!trill(!e8-|e8!trill)!|eAfA eA_dG|c_dcB ABcA|BcBA BEcE|
V:2
!trill!!trill(!B8-|B8!trill)!|BEcE BEAD|GAGF E_DCB,|CA_DB CAB,G|CA_DB CAB,G|C2_D2C2B,2|A,2e2c2A2-|A2GF GB=Ac|
V:3
E,2D,2E,2B,,2|E,2D,2E,2B,,2|E,2A,,2B,,4|E,2F,2G,2E,2|A,2G,2A,2E,2|A,2G,2A,2E,2|A,2_D,2E,4|A,,8|E,8|
V:1
_dedc BcdB|c_dcB cF=dF|efed ecAf|G8|c8|B2c_de2E2|A2G2F2_d2|G2ABc2C2|FGFE =D_EFD|
V:2
B2f2_d2B2-|B2AGA2=B,2|C8|F8|E2FGA2A,2|_D2C2B,2G2|C2=D=EF2F,2|B,CB,A, G,A,B,G,|A,B,A,G, F,G,A,F,|
V:3
B,,8|F,8|C,2G,2C4-|C=B,C=A, B,A,B,G,|_A,2E,2A,4-|A,4G,4-|G,2C,2F,4-|F,4=E,4|F,,8|
% (5)
V:1
E2C2A4-|A2G2g4-|g2fe defd|efed cdec|PA6GA|G4-Gc=Bc|fgfe defd|efed cdec|dedc =BcdB|
V:2
G,FED CDEC|_DEDC B,CDB,|C8-|C=B,CDE4-|E2DC =B,CDB,|CDEFG2G,2|=A,3=B,PB,4|C8|G8|
V:3
C,8|B,,2C,_D,E,2E,,2|A,,2G,,2F,,2=D,2|G,,2=A,,=B,,C,2C,,2|F,,2E,,2D,,2F,,2|E,,2D,,2C,,2E,,2|D,,4G,,4|C,,2G,,2C,4-|C,2=B,,2G,4-|
V:1
c_dc_B ABcA|BcBA GABG|ABAG FGAF|GAGF =EFGE|F2c2f4-|f2ed cdec|dedc =BcdB|c8-|cdcdPd3c/d/|
V:2
E2FGA2A,2|_D2C2B,2G2|C2=D=EF2F,2|B,CB,A, G,A,B,G,|A,B,A,G, F,G,A,F,|G,2C,2C4-|C2=B,C DEFD|EFED CDEC|ABAG FGAF|
V:3
G,2C,2F,4-|F,4=E,4|F,4_D,4|B,,4C,4|F,,4z2F,,2|C,4z2C,2|G,,4z2G,2|C2_B,2A,2G,2|F,4B,4|
V:1
e8-|efefPf3e/f/|g4z4|G8|c8|B2cde2E2|A2G2F2d2|G2=A=Bc2C2|FGFE DEFD|
V:2
GAGF EDC=B,|C=B,CE DCB,C|=B,G,=A,B, CB,CD|EFED C=B,CD|EDEF GFEF|GAGFE4-|E4D4-|D4C4-|C4=B,4|
V:3
E,2D,2C,2E,2|A,,8|G,,2F,2E,2D,2|C,2D,2E,2D,2|C,2_B,,2A,,4|E,2D,2C,CB,C|F,4zB,A,B,|E,4zA,G,A,|D,4G,4|
V:1
EFED CDEF|GAGF =EFGE|F=EFG ABcA|BcBA GABG|ABAG FGAF|D8-|Dc=B=A GcF2|E4D4|HC8|]
V:2
C8-|C8-|C8-|C8-|C8-|C=B,=A,B, CEDC|=B,2G,2C4-|C=B,C=A,PB,3C|HC8|]
V:3
C,2D,2E,2C,2|B,2A,2G,2C,2|A,2G,2F,2C,2|G,2F,2=E,2C,2|F,2G,2A,2G,2|^F,2G,2=A,2F,2|G,2=F,2E,2_A,2|G,4G,,4|HC,,8|]
